X: 210
T: Begging Song
C: Teton Sioux band 1911-1914
N: Derived from sioux205.krn
O: South Dakota, U.S.A.
N: Teton Sioux Music by Frances Densmore, 1918
Z: transcribed to **kern format by Craig Sapp
L: 1/8
M: 3/4
Q: 1/4=58
K: Db clef=bass
%%linebreak <none>
F, [I:setbarnb 1]| 
F6 | 
B, FD4 | 
(3A, F, B,A,4 ||  
[M:2/4]F,2F,2 | 
B, B, (3B, F, B, | 
A,4 | 
F,2F,2 | 
F, F, F, D, | 
F, F,D,2 | 
D, F, F, D, | 
F, F, F, D, | 
F, F,F,2 | 
B, B,B,2 | 
F D D D ||  
[M:3/4]A, F, B, A, A, A, ||  
[M:2/4]F,2F,2 | 
B, B, (3B, F, B, | 
A,2A,2 | 
F,2F,2 | 
E, F, F, D, | 
F, F,D,2 | 
D, F, F, D, | 
F, F,D,2 |[1 
F, F, F, D, | 
F,3 [I:setbarnb 25]:|][2 
F, F, F, D, | 
F, F, (F, D,) |]  



